X: 3
T: Put Me In The Big Chest
R: reel
M: 4/4
L: 1/8
K: Amaj
EFAB c3 f | ecBA FAAF | EFAB c^Bcf | ecBG A2 :|e2 ec eA (3AAA | efec B^ABc | ~e3 c e ~f3 | ec (3BAG A2 :|


Tune 3105	Setting 16225

